svg/AMBICI_ESTACIO.svg

<?xml version="1.0" encoding="UTF-8" standalone="no"?>
<svg
   xmlns:dc="http://purl.org/dc/elements/1.1/"
   xmlns:cc="http://creativecommons.org/ns#"
   xmlns:rdf="http://www.w3.org/1999/02/22-rdf-syntax-ns#"
   xmlns:svg="http://www.w3.org/2000/svg"
   xmlns="http://www.w3.org/2000/svg"
   xmlns:sodipodi="http://sodipodi.sourceforge.net/DTD/sodipodi-0.dtd"
   xmlns:inkscape="http://www.inkscape.org/namespaces/inkscape"
   width="64"
   height="64"
   viewBox="0 0 64 64"
   fill="none"
   version="1.1"
   id="svg8"
   sodipodi:docname="AMBICI_ESTACIO.svg"
   inkscape:version="1.0.2-2 (e86c870879, 2021-01-15)">
  <metadata
     id="metadata14">
    <rdf:RDF>
      <cc:Work
         rdf:about="">
        <dc:format>image/svg+xml</dc:format>
        <dc:type
           rdf:resource="http://purl.org/dc/dcmitype/StillImage" />
        <dc:title></dc:title>
      </cc:Work>
    </rdf:RDF>
  </metadata>
  <defs
     id="defs12" />
  <sodipodi:namedview
     pagecolor="#ffffff"
     bordercolor="#666666"
     borderopacity="1"
     objecttolerance="10"
     gridtolerance="10"
     guidetolerance="10"
     inkscape:pageopacity="0"
     inkscape:pageshadow="2"
     inkscape:window-width="1920"
     inkscape:window-height="1017"
     id="namedview10"
     showgrid="false"
     showguides="true"
     inkscape:lockguides="false"
     inkscape:document-units="px"
     inkscape:zoom="8.8541667"
     inkscape:cx="27.314444"
     inkscape:cy="32.963088"
     inkscape:window-x="-8"
     inkscape:window-y="-8"
     inkscape:window-maximized="1"
     inkscape:current-layer="svg8" />
  <circle
     cx="32"
     cy="32"
     fill="#20385d"
     id="circle150"
     style="stroke-width:4.57143"
     r="32" />
  <path
     d="m 30.042364,26.642548 -4.201829,16.081029 h 4.084472 l 4.2036,-16.081029 z"
     fill="#ff3b0f"
     id="path152"
     style="stroke-width:4.42857" />
  <path
     d="m 32.772578,25.220091 c 1.321487,0 2.356443,-1.062858 2.356443,-2.327613 0,-1.264711 -1.034956,-2.384343 -2.356443,-2.384343 -1.321486,0 -2.356886,1.062945 -2.356886,2.385761 0,1.32268 1.062858,2.327523 2.356886,2.327523 z"
     fill="#ff3b0f"
     id="path154"
     style="stroke-width:4.42857" />
  <path
     d="m 53.024879,25.220091 c 1.321486,0 2.356886,-1.062858 2.356886,-2.327613 0,-1.264711 -1.0354,-2.385715 -2.356886,-2.385715 -1.321043,0 -2.356443,1.062946 -2.356443,2.385715 0,1.322771 1.062857,2.327613 2.356443,2.327613 z"
     fill="#ff3b0f"
     id="path156"
     style="stroke-width:4.42857" />
  <path
     d="m 42.377707,39.364506 c -2.454757,0 -4.264272,-1.775857 -4.264272,-4.650885 0,-2.875472 1.872843,-4.65133 4.264272,-4.65133 1.679315,0 3.101771,0.710343 4.037529,2.74483 l 3.327187,-2.19613 c -1.131058,-2.745272 -3.779345,-4.360814 -7.33283,-4.360814 -4.554786,0 -8.432,3.359957 -8.432,8.463444 0,5.103042 3.682357,8.463443 8.432,8.463443 3.359958,0 5.9768,-1.582772 7.494472,-4.619443 l -3.2953,-2.131473 c -0.903872,1.874173 -2.099586,2.939687 -4.232386,2.939687 z"
     fill="#ff3b0f"
     id="path158"
     style="stroke-width:4.42857" />
  <path
     d="m 18.250583,26.189063 c -2.139709,0 -4.084515,0.9083 -5.284305,2.431285 V 20.689219 H 8.8817627 V 42.72225 h 4.0845153 v -1.978244 c 0.97309,1.329901 2.691243,2.431729 5.219338,2.431729 4.214495,0 7.748804,-3.144729 7.748804,-8.494001 0,-5.349271 -3.371205,-8.494 -7.683837,-8.494 z m -1.004887,13.163044 c -2.626231,0 -4.539286,-1.944586 -4.539286,-4.669043 0,-2.724459 1.913055,-4.667716 4.539286,-4.667716 2.626275,0 4.539286,1.944586 4.539286,4.667716 0,2.723127 -1.913011,4.669043 -4.539286,4.669043 z"
     fill="#ff3b0f"
     id="path160"
     style="stroke-width:4.42857" />
  <path
     d="m 55.061136,26.701891 h -4.070742 v 16.023016 h 4.070742 z"
     fill="#ff3b0f"
     id="path162"
     style="stroke-width:4.42857" />
</svg>

<?xml version="1.0" encoding="UTF-8" standalone="yes"?>
<svg xmlns="http://www.w3.org/2000/svg" xmlns:xlink="http://www.w3.org/1999/xlink" width="64px" height="64px" viewBox="0 0 64 64" version="1.1">
  <g id="surface1">
    <path style=" stroke:none;fill-rule:nonzero;fill:rgb(12.54902%,21.960784%,36.470589%);fill-opacity:1;" d="M 64 32 C 64 49.671875 49.671875 64 32 64 C 14.328125 64 0 49.671875 0 32 C 0 14.328125 14.328125 0 32 0 C 49.671875 0 64 14.328125 64 32 Z M 64 32 "/>
    <path style=" stroke:none;fill-rule:nonzero;fill:rgb(100%,23.137255%,5.882353%);fill-opacity:1;" d="M 30.042969 26.640625 L 25.839844 42.722656 L 29.925781 42.722656 L 34.128906 26.640625 Z M 30.042969 26.640625 "/>
    <path style=" stroke:none;fill-rule:nonzero;fill:rgb(100%,23.137255%,5.882353%);fill-opacity:1;" d="M 32.773438 25.21875 C 34.09375 25.21875 35.128906 24.15625 35.128906 22.890625 C 35.128906 21.628906 34.09375 20.507812 32.773438 20.507812 C 31.449219 20.507812 30.414062 21.570312 30.414062 22.894531 C 30.414062 24.214844 31.480469 25.222656 32.773438 25.222656 Z M 32.773438 25.21875 "/>
    <path style=" stroke:none;fill-rule:nonzero;fill:rgb(100%,23.137255%,5.882353%);fill-opacity:1;" d="M 53.023438 25.21875 C 54.347656 25.21875 55.382812 24.15625 55.382812 22.890625 C 55.382812 21.628906 54.347656 20.507812 53.023438 20.507812 C 51.703125 20.507812 50.667969 21.570312 50.667969 22.890625 C 50.667969 24.214844 51.730469 25.21875 53.023438 25.21875 Z M 53.023438 25.21875 "/>
    <path style=" stroke:none;fill-rule:nonzero;fill:rgb(100%,23.137255%,5.882353%);fill-opacity:1;" d="M 42.378906 39.363281 C 39.921875 39.363281 38.113281 37.589844 38.113281 34.714844 C 38.113281 31.839844 39.984375 30.0625 42.378906 30.0625 C 44.058594 30.0625 45.480469 30.773438 46.414062 32.808594 L 49.742188 30.609375 C 48.613281 27.867188 45.964844 26.25 42.410156 26.25 C 37.855469 26.25 33.976562 29.609375 33.976562 34.714844 C 33.976562 39.816406 37.660156 43.175781 42.410156 43.175781 C 45.769531 43.175781 48.386719 41.59375 49.902344 38.558594 L 46.609375 36.425781 C 45.703125 38.300781 44.507812 39.367188 42.375 39.367188 Z M 42.378906 39.363281 "/>
    <path style=" stroke:none;fill-rule:nonzero;fill:rgb(100%,23.137255%,5.882353%);fill-opacity:1;" d="M 18.25 26.1875 C 16.109375 26.1875 14.167969 27.097656 12.964844 28.621094 L 12.964844 20.6875 L 8.882812 20.6875 L 8.882812 42.722656 L 12.964844 42.722656 L 12.964844 40.742188 C 13.9375 42.074219 15.65625 43.175781 18.1875 43.175781 C 22.398438 43.175781 25.933594 40.03125 25.933594 34.683594 C 25.933594 29.332031 22.5625 26.1875 18.25 26.1875 Z M 17.246094 39.351562 C 14.621094 39.351562 12.707031 37.40625 12.707031 34.683594 C 12.707031 31.957031 14.621094 30.015625 17.246094 30.015625 C 19.871094 30.015625 21.785156 31.960938 21.785156 34.683594 C 21.785156 37.40625 19.871094 39.351562 17.246094 39.351562 Z M 17.246094 39.351562 "/>
    <path style=" stroke:none;fill-rule:nonzero;fill:rgb(100%,23.137255%,5.882353%);fill-opacity:1;" d="M 55.0625 26.703125 L 50.992188 26.703125 L 50.992188 42.726562 L 55.0625 42.726562 Z M 55.0625 26.703125 "/>
  </g>
</svg>
